icons/edit.svg

<svg xmlns="http://www.w3.org/2000/svg" viewBox="0 0 16 16">
  <defs id="defs3051">
    <style type="text/css" id="current-color-scheme">
      .ColorScheme-Text {
        color:#eff0f1;
      }
      </style>
  </defs>
 <path style="fill:currentColor;fill-opacity:1;stroke:none" 
     d="M 10.398438 2 L 5.2871094 7.1113281 L 2 10.398438 L 2 14 L 5.6015625 14 L 14 5.6015625 L 10.398438 2 z M 8.3496094 5.4902344 L 10.509766 7.6503906 L 7.3359375 10.826172 L 7.3359375 10.150391 L 6.3222656 10.171875 L 5.2871094 10.171875 L 5.2871094 9.1367188 L 5.2871094 8.5507812 L 6.7285156 7.1113281 L 8.3496094 5.4902344 z M 4.2734375 9.5644531 L 4.2734375 11.185547 L 5.3085938 11.185547 L 6.3007812 11.185547 L 6.3222656 11.837891 L 5.2421875 12.919922 L 3.8007812 12.919922 L 3.0800781 12.199219 L 3.0800781 10.757812 L 4.2734375 9.5644531 z "
     class="ColorScheme-Text"
     />
</svg>

<svg version="1.1" viewBox="0 0 16 16" xmlns="http://www.w3.org/2000/svg">
 <defs>
  <style id="current-color-scheme" type="text/css">.ColorScheme-Text {
        color:#eff0f1;
      }</style>
 </defs>
 <path class="ColorScheme-Text" d="m10.4 2-8.398 8.398v3.602h3.602l8.398-8.398-3.602-3.602zm-2.049 3.49 2.16 2.16-3.174 3.176v-0.6758l-1.014 0.02148h-1.035v-1.035-0.5859l1.441-1.439 1.621-1.621zm-4.076 4.074v1.621h1.035 0.9922l0.02148 0.6523-1.08 1.082h-1.441l-0.7207-0.7207v-1.441l1.193-1.193z" fill="#f0f0f0"/>
</svg>
